svgs/sharp-light/table-picnic.svg

<svg xmlns="http://www.w3.org/2000/svg" viewBox="0 0 512 512"><!--! Font Awesome Pro 6.6.0 by @fontawesome - https://fontawesome.com License - https://fontawesome.com/license (Commercial License) Copyright 2024 Fonticons, Inc. --><path d="M64 64l16 0 352 0 16 0 0 32-16 0-88.6 0 49.8 128L496 224l16 0 0 32-16 0-90.4 0-34.3 0-230.6 0-34.3 0L16 256 0 256l0-32 16 0 102.8 0L168.6 96 80 96 64 96l0-32zm89.2 160l205.7 0L309.1 96 202.9 96 153.2 224zm264.9 64l62.2 160-34.3 0L383.7 288l34.3 0zm-289.8 0L66.1 448l-34.3 0L93.9 288l34.3 0z"/></svg>

<svg xmlns="http://www.w3.org/2000/svg" viewBox="0 0 512 512"><!--! Font Awesome Pro 6.4.2 by @fontawesome - https://fontawesome.com License - https://fontawesome.com/license (Commercial License) Copyright 2023 Fonticons, Inc. --><path d="M64 64H80 432h16V96H432 343.4l49.8 128H496h16v32H496 405.6 371.3 140.7 106.4 16 0V224H16 118.8L168.6 96H80 64V64zm89.2 160H358.8L309.1 96H202.9L153.2 224zm264.9 64l62.2 160H445.9L383.7 288h34.3zm-289.8 0L66.1 448H31.7L93.9 288h34.3z"/></svg>
